X:1
T:Sommerlied
T:Max Bruch, Op. 60,2
T:Paul Gerhardt
T:Sommerlied
T:Creative Commons Attribution Non Commercial 3.0
T:Creative Commons Attribution Non Commercial 3.0
T:Creative Commons Attribution Non Commercial 3.0
T:Creative Commons Attribution Non Commercial 3.0
C:Max Bruch
Z:Paul Gerhardt
Z:Creative Commons Attribution Non Commercial 3.0
%%score [ ( 1 2 ) 3 4 ]
L:1/8
Q:1/4=120
M:4/4
K:C
V:1 treble nm="S\nA"
V:2 treble 
V:3 treble-8 nm="T"
V:4 bass nm="B"
V:1
"^Allegro ma molto moderato"!f! G2 | c6 G2 | A3 A c2 d2 | e6 e2 | f3 c f2 e2 | d3 A A2!mf! d2 | %6
w: 1.~Geh'|aus mein|Herz, und su- che|Freud' in|die- ser lie- ben|Som- mer- zeit, an|
w: 2.~Die|Bäu- me|ste- hen vol- ler|Laub, das|Erd- reich de- cket|sei- nen Staub mit|
w: 3.~Die|Ler- che|schwingt sich in die|Luft, das|Täub- chen fliegt aus|sei- ner Kluft und|
w: 4.~Ich|sel- ber|kann und mag nicht|ruh'n, des|gro- ßen Got- tes|gro- ßes Tun er-|
!<(! c2 B2 B2 c2!<)! |!>(! d8!>)! | d4 z2!p! G2 |!<(! A3 B B2 c2!<)! | d6 e2 | %11
w: dei- nes Got- tes|Ga-|ben! Schau|an der schö- nen|Gär- ten|
w: ei- * grü- nen|Klei-|de. Nar-|zis- sen und die|Tu- li-|
w: macht sich in die|Wäl-|der, Die|hoch- be- lob- te|Nach- ti-|
w: weckt * al- le|Sin-|nen! Ich|sin- ge mit, wenn|al- les|
 (!>!d2"^* Tulipan, der (veraltet für Tulpe)" c2) z2 c2 | G3 F!<(! G2 A2!<)! | _B6!>(! c2!>)! | %14
w: Zier, _ und|sie- he, wie sie|dir und|
w: pan~*~ _ die|zie- hen sich viel|schö- *|
w: gall _ er-|götzt und füllt mit|ih- rem|
w: singt _ und|las- se, was dem|Höch- *|
 A4"^cresc." d4 | (c2 =B2) (c2 d2) | (e2 d2) (c2 d2) | B8 | c4!f! =f4 | (e2 d2) (e2 f2) | %20
w: mir sich|aus- * ge- *|schmü- * cket _|ha-|ben, sich|aus- * ge- *|
w: an als|Sa- * lo- *|mo- * nis _|Sei-|de, als|Sa- * lo- *|
w: Schall Berg,|Hü- * gel, _|Tal _ und _|Fel-|der, Berg,|Hü- * gel, _|
w: klingt, aus|mei- * nem _|Her- * zen _|rin-|nen, aus|mei- * nem _|
 (g2 f2) (e2 d2) | (c8 | d8)[Q:1/4=120] | !fermata!c6 |] %24
w: schmü- * cket _|ha-||ben!|
w: mo- * nis _|Sei-||de!|
w: Tal _ und _|Fel-||der!|
w: Her- * zen _|rin-||nen!|
V:2
 G2 | G6 E2 | F3 A G2 AB | c6 G2 | A3 A c2 A2 | A3 F F2 A2 | G3 G G2 G2 | (G6 ^F2) | G4 x2 D2 | %9
w: |||||||||
w: ||||||* nem * *|||
w: |||||||||
w: ||||||* mir * *|||
 E3 =F F2 G2 | (A2 c2) B4 | B2 c2 x2 E2 | E3 D E2 F2 | (F2 D2) (E3 G) | (G2 F2) A4 | G4 A2 =B2 | %16
w: |||||||
w: ||||* * ner _|_ _ _||
w: |||||||
w: ||||* * sten _|_ _ _||
 B4 A4 | (A2 ^G2 ^F2 G2) | A4 (A2 d2) | (c2 B2) (c2 d2) | (e2 d2) (c2 B2) | (A4 c4-) | %22
w: ||||||
w: ||||||
w: ||||||
w: ||||||
 (c2"^rit." B2 A2 B2) | c6 |] %24
w: ||
w: ||
w: ||
w: ||
V:3
 G2 | e6 c2 | c3 f e2 f2 | g6 c2 | c3 c A2 c2 | f3 d d2!mf! f2 |!<(! d2 d2 d2 G2!<)! | %7
!>(! (B4 A2 c2)!>)! | B4 z2!p! B2 |!<(! c3 d d2 e2!<)! | f6 g2 | (!>!f2 e2) z2 c2 | %12
 _B3 c!<(! B2 A2 | G4!<)!!>(! c4!>)! | c4"^cresc." f4 | d4 (c2 =B2) | (g2 f2) (e2 f2) | e8 | %18
 e4!f! d4 | G4 g4 | g4 (g2 f2) | (e8 | g4 f4) | !fermata!e6 |] %24
V:4
 z2 | z2!f! C,2 (C4 | C6) G,2 | C,6 C,2 | F,3 A, F,2 A,2 | D,3 F, F,2!mf! D,2 | %6
w: |1.~Geh' aus|_ mein|Herz! in|die- ser lie- ben|Som- mer- zeit, an|
w: |2.~Geh' aus|_ mein|Herz! das|Erd- reich de- cket|sei- nen Staub mit|
w: |3,~Geh' aus|_ mein|Herz! das|Täub- chen fliegt aus|sei- ner Kluft und|
w: |4.~Geh' aus,|_ mein|Herz! das|gro- ßen Got- tes|gro- ßes Tun er-|
!<(! G,2 G,2 F,2 E,2!<)! |!>(! (B,,2 C,2) D,4!>)! | z2!mf! G,,2 !>!G,4- | G,2 G,2!<(! (G,4!<)! | %10
w: dei- nes Got- tes|Ga- * ben!|1.~Geh' aus|_ mein Herz!|
w: ei- nem grü- nen|Klei- * de.|2.~Geh' aus|_ mein Herz!|
w: macht sich in die|Wäl- * der,|3,~Geh' aus|_ mein Herz!|
w: weckt mir al- le|Sin- * nen!|4.~Geh' aus,|_ mein Herz!|
 G,8) | z2!mf! C,2 C4- | (C8 | C4)!>(! C,4!>)! | F,4"^cresc." D,4 | G,6 G,2 | (E,2 G,2) (A,2 D,2) | %17
w: _|1.~Geh' aus|_|* mein|Herz! sich|aus- ge-|schmü- * cket _|
w: _|2.~Geh' aus|_|* mein|Herz! als|Sa- lo-|mo- * nis _|
w: _|3,~Geh' aus|_|* mein|Herz! Berg,|Hü- gel,|Tal _ und _|
w: _|4.~Geh' aus,|_|* mein|Herz! aus|mei- nem|Her- * zen _|
 E,8 | A,4!f! D,4 | G,6 F,2 | (E,2 G,2) (C2 G,2) | (A,8 | G,8) | !fermata!C,6 |] %24
w: ha-|ben, sich|aus- ge-|schmü- * cket _|ha-||ben!|
w: Sei-|de, als|Sa- lo-|mo- * nis _|Sei-||de!|
w: Fel-|der, Berg,|Hü- gel,|Tal _ und _|Fel-||der!|
w: rin-|nen, aus|mei- nem|Her- * zen _|rin-||nen!|

